X:514
T:Red River Valley
C:Joe Buchanan's Scottish Tome - Page 624.2
I:624 2
Z:Carl Allison
R:Quickstep
L:1/4
M:4/4
K:C
D G | "Gm"B2 B B | "D7"B2 "A"A "D7"B | "Gm"A G3 | "Gm"D G B2 | G B "D7"d2 | "D7"c B A2- | "D7"A4- | A2 "Gm"d c |
"Gm"B2 "Dm"B A | "Gm"G2 B d | "C"d "C"c3"Gm" | "Cm"E E "D7"E2 | "D7"^F G A2 | "A"B "D7"A G2- | G4- | G2 z/ :|
W:Errata: Chords so disturbingly bad I turned them off.
